images/3234805.svg

<?xml version="1.0" encoding="UTF-8"?>
<svg xmlns="http://www.w3.org/2000/svg" xmlns:xlink="http://www.w3.org/1999/xlink" width="300pt" height="300pt" viewBox="0 0 300 300" version="1.1">
<defs>
<g>
<symbol overflow="visible" id="glyph0-0">
<path style="stroke:none;" d="M 0.453125 1.59375 L 0.453125 -6.34375 L 4.953125 -6.34375 L 4.953125 1.59375 Z M 0.953125 1.09375 L 4.453125 1.09375 L 4.453125 -5.84375 L 0.953125 -5.84375 Z M 0.953125 1.09375 "/>
</symbol>
<symbol overflow="visible" id="glyph0-1">
<path style="stroke:none;" d="M 3.546875 -5.953125 C 2.898438 -5.953125 2.382812 -5.710938 2 -5.234375 C 1.625 -4.753906 1.4375 -4.101562 1.4375 -3.28125 C 1.4375 -2.445312 1.625 -1.789062 2 -1.3125 C 2.382812 -0.832031 2.898438 -0.59375 3.546875 -0.59375 C 4.191406 -0.59375 4.703125 -0.832031 5.078125 -1.3125 C 5.453125 -1.789062 5.640625 -2.445312 5.640625 -3.28125 C 5.640625 -4.101562 5.453125 -4.753906 5.078125 -5.234375 C 4.703125 -5.710938 4.191406 -5.953125 3.546875 -5.953125 Z M 3.546875 -6.6875 C 4.460938 -6.6875 5.195312 -6.375 5.75 -5.75 C 6.300781 -5.132812 6.578125 -4.3125 6.578125 -3.28125 C 6.578125 -2.238281 6.300781 -1.410156 5.75 -0.796875 C 5.195312 -0.179688 4.460938 0.125 3.546875 0.125 C 2.617188 0.125 1.878906 -0.179688 1.328125 -0.796875 C 0.773438 -1.410156 0.5 -2.238281 0.5 -3.28125 C 0.5 -4.3125 0.773438 -5.132812 1.328125 -5.75 C 1.878906 -6.375 2.617188 -6.6875 3.546875 -6.6875 Z M 3.546875 -6.6875 "/>
</symbol>
<symbol overflow="visible" id="glyph0-2">
<path style="stroke:none;" d="M 0.890625 -6.5625 L 2.078125 -6.5625 L 4.984375 -1.078125 L 4.984375 -6.5625 L 5.84375 -6.5625 L 5.84375 0 L 4.65625 0 L 1.75 -5.484375 L 1.75 0 L 0.890625 0 Z M 0.890625 -6.5625 "/>
</symbol>
<symbol overflow="visible" id="glyph0-3">
<path style="stroke:none;" d="M 0.890625 -6.5625 L 1.765625 -6.5625 L 1.765625 -3.875 L 5 -3.875 L 5 -6.5625 L 5.890625 -6.5625 L 5.890625 0 L 5 0 L 5 -3.125 L 1.765625 -3.125 L 1.765625 0 L 0.890625 0 Z M 0.890625 -6.5625 "/>
</symbol>
<symbol overflow="visible" id="glyph0-4">
<path style="stroke:none;" d="M 0.890625 -6.5625 L 4.65625 -6.5625 L 4.65625 -5.8125 L 1.765625 -5.8125 L 1.765625 -3.875 L 4.375 -3.875 L 4.375 -3.140625 L 1.765625 -3.140625 L 1.765625 0 L 0.890625 0 Z M 0.890625 -6.5625 "/>
</symbol>
</g>
</defs>
<g id="surface50533">
<rect x="0" y="0" width="300" height="300" style="fill:rgb(100%,100%,100%);fill-opacity:1;stroke:none;"/>
<path style="fill:none;stroke-width:1.2;stroke-linecap:butt;stroke-linejoin:miter;stroke:rgb(0%,0%,0%);stroke-opacity:1;stroke-miterlimit:10;" d="M 35.25 159.351562 L 43.761719 165.789062 "/>
<path style="fill:none;stroke-width:1.2;stroke-linecap:butt;stroke-linejoin:miter;stroke:rgb(100%,0%,0%);stroke-opacity:1;stroke-miterlimit:10;" d="M 43.761719 165.789062 L 52.273438 172.222656 "/>
<path style="fill:none;stroke-width:1.2;stroke-linecap:butt;stroke-linejoin:miter;stroke:rgb(100%,0%,0%);stroke-opacity:1;stroke-miterlimit:10;" d="M 52.273438 172.222656 L 62.101562 168.070312 "/>
<path style="fill:none;stroke-width:1.2;stroke-linecap:butt;stroke-linejoin:miter;stroke:rgb(0%,0%,0%);stroke-opacity:1;stroke-miterlimit:10;" d="M 62.101562 168.070312 L 71.929688 163.917969 "/>
<path style=" stroke:none;fill-rule:nonzero;fill:rgb(100%,100%,100%);fill-opacity:1;" d="M 48.273438 166.722656 L 56.273438 166.722656 L 56.273438 177.722656 L 48.273438 177.722656 Z M 48.273438 166.722656 "/>
<g style="fill:rgb(100%,0%,0%);fill-opacity:1;">
  <use xlink:href="#glyph0-1" x="48.273438" y="175.385742"/>
</g>
<path style="fill:none;stroke-width:1.2;stroke-linecap:butt;stroke-linejoin:miter;stroke:rgb(0%,0%,0%);stroke-opacity:1;stroke-miterlimit:10;" d="M 71.929688 163.917969 L 74.566406 142.742188 "/>
<path style="fill:none;stroke-width:1.2;stroke-linecap:butt;stroke-linejoin:miter;stroke:rgb(0%,0%,0%);stroke-opacity:1;stroke-miterlimit:10;" d="M 77.175781 162.417969 L 79.285156 145.476562 "/>
<path style="fill:none;stroke-width:1.2;stroke-linecap:butt;stroke-linejoin:miter;stroke:rgb(0%,0%,0%);stroke-opacity:1;stroke-miterlimit:10;" d="M 88.949219 176.789062 L 71.929688 163.917969 "/>
<path style="fill:none;stroke-width:1.2;stroke-linecap:butt;stroke-linejoin:miter;stroke:rgb(0%,0%,0%);stroke-opacity:1;stroke-miterlimit:10;" d="M 74.566406 142.742188 L 94.222656 134.433594 "/>
<path style="fill:none;stroke-width:1.2;stroke-linecap:butt;stroke-linejoin:miter;stroke:rgb(0%,0%,0%);stroke-opacity:1;stroke-miterlimit:10;" d="M 94.222656 134.433594 L 111.242188 147.304688 "/>
<path style="fill:none;stroke-width:1.2;stroke-linecap:butt;stroke-linejoin:miter;stroke:rgb(0%,0%,0%);stroke-opacity:1;stroke-miterlimit:10;" d="M 92.894531 139.726562 L 106.511719 150.023438 "/>
<path style="fill:none;stroke-width:1.2;stroke-linecap:butt;stroke-linejoin:miter;stroke:rgb(0%,0%,0%);stroke-opacity:1;stroke-miterlimit:10;" d="M 94.222656 134.433594 L 95.539062 123.847656 "/>
<path style="fill:none;stroke-width:1.2;stroke-linecap:butt;stroke-linejoin:miter;stroke:rgb(100%,0%,0%);stroke-opacity:1;stroke-miterlimit:10;" d="M 95.539062 123.847656 L 96.859375 113.257812 "/>
<path style="fill:none;stroke-width:1.2;stroke-linecap:butt;stroke-linejoin:miter;stroke:rgb(0%,0%,0%);stroke-opacity:1;stroke-miterlimit:10;" d="M 111.242188 147.304688 L 108.609375 168.480469 "/>
<path style="fill:none;stroke-width:1.2;stroke-linecap:butt;stroke-linejoin:miter;stroke:rgb(0%,0%,0%);stroke-opacity:1;stroke-miterlimit:10;" d="M 111.242188 147.304688 L 130.902344 139 "/>
<path style="fill:none;stroke-width:1.2;stroke-linecap:butt;stroke-linejoin:miter;stroke:rgb(0%,0%,0%);stroke-opacity:1;stroke-miterlimit:10;" d="M 108.609375 168.480469 L 88.949219 176.789062 "/>
<path style="fill:none;stroke-width:1.2;stroke-linecap:butt;stroke-linejoin:miter;stroke:rgb(0%,0%,0%);stroke-opacity:1;stroke-miterlimit:10;" d="M 104.6875 164.6875 L 88.960938 171.332031 "/>
<path style="fill:none;stroke-width:1.2;stroke-linecap:butt;stroke-linejoin:miter;stroke:rgb(0%,0%,0%);stroke-opacity:1;stroke-miterlimit:10;" d="M 130.902344 139 L 139.410156 145.433594 "/>
<path style="fill:none;stroke-width:1.2;stroke-linecap:butt;stroke-linejoin:miter;stroke:rgb(0%,0%,100%);stroke-opacity:1;stroke-miterlimit:10;" d="M 139.410156 145.433594 L 147.921875 151.871094 "/>
<path style="fill:none;stroke-width:1.2;stroke-linecap:butt;stroke-linejoin:miter;stroke:rgb(0%,0%,100%);stroke-opacity:1;stroke-miterlimit:10;" d="M 147.921875 151.871094 L 157.75 147.71875 "/>
<path style="fill:none;stroke-width:1.2;stroke-linecap:butt;stroke-linejoin:miter;stroke:rgb(0%,0%,0%);stroke-opacity:1;stroke-miterlimit:10;" d="M 157.75 147.71875 L 167.578125 143.566406 "/>
<path style=" stroke:none;fill-rule:nonzero;fill:rgb(100%,100%,100%);fill-opacity:1;" d="M 140.921875 146.371094 L 154.921875 146.371094 L 154.921875 157.371094 L 140.921875 157.371094 Z M 140.921875 146.371094 "/>
<g style="fill:rgb(0%,0%,100%);fill-opacity:1;">
  <use xlink:href="#glyph0-2" x="140.921875" y="155.03418"/>
  <use xlink:href="#glyph0-3" x="147.899414" y="155.03418"/>
</g>
<path style="fill:none;stroke-width:1.2;stroke-linecap:butt;stroke-linejoin:miter;stroke:rgb(0%,0%,0%);stroke-opacity:1;stroke-miterlimit:10;" d="M 167.578125 143.566406 L 176.089844 150 "/>
<path style="fill:none;stroke-width:1.2;stroke-linecap:butt;stroke-linejoin:miter;stroke:rgb(0%,0%,100%);stroke-opacity:1;stroke-miterlimit:10;" d="M 176.089844 150 L 184.601562 156.433594 "/>
<path style="fill:none;stroke-width:1.2;stroke-linecap:butt;stroke-linejoin:miter;stroke:rgb(0%,0%,0%);stroke-opacity:1;stroke-miterlimit:10;" d="M 172.308594 140.847656 L 179.117188 145.996094 "/>
<path style="fill:none;stroke-width:1.2;stroke-linecap:butt;stroke-linejoin:miter;stroke:rgb(0%,0%,100%);stroke-opacity:1;stroke-miterlimit:10;" d="M 179.117188 145.996094 L 185.929688 151.144531 "/>
<path style="fill:none;stroke-width:1.2;stroke-linecap:butt;stroke-linejoin:miter;stroke:rgb(0%,0%,0%);stroke-opacity:1;stroke-miterlimit:10;" d="M 170.214844 122.386719 L 167.578125 143.566406 "/>
<path style="fill:none;stroke-width:1.2;stroke-linecap:butt;stroke-linejoin:miter;stroke:rgb(0%,0%,100%);stroke-opacity:1;stroke-miterlimit:10;" d="M 184.601562 156.433594 L 194.429688 152.28125 "/>
<path style="fill:none;stroke-width:1.2;stroke-linecap:butt;stroke-linejoin:miter;stroke:rgb(0%,0%,0%);stroke-opacity:1;stroke-miterlimit:10;" d="M 194.429688 152.28125 L 204.257812 148.128906 "/>
<path style=" stroke:none;fill-rule:nonzero;fill:rgb(100%,100%,100%);fill-opacity:1;" d="M 181.601562 150.933594 L 188.601562 150.933594 L 188.601562 161.933594 L 181.601562 161.933594 Z M 181.601562 150.933594 "/>
<g style="fill:rgb(0%,0%,100%);fill-opacity:1;">
  <use xlink:href="#glyph0-2" x="181.601562" y="159.59668"/>
</g>
<path style="fill:none;stroke-width:1.2;stroke-linecap:butt;stroke-linejoin:miter;stroke:rgb(0%,0%,0%);stroke-opacity:1;stroke-miterlimit:10;" d="M 204.257812 148.128906 L 205.578125 137.542969 "/>
<path style="fill:none;stroke-width:1.2;stroke-linecap:butt;stroke-linejoin:miter;stroke:rgb(0%,0%,100%);stroke-opacity:1;stroke-miterlimit:10;" d="M 205.578125 137.542969 L 206.894531 126.953125 "/>
<path style="fill:none;stroke-width:1.2;stroke-linecap:butt;stroke-linejoin:miter;stroke:rgb(0%,0%,0%);stroke-opacity:1;stroke-miterlimit:10;" d="M 199.539062 145.390625 L 200.59375 136.921875 "/>
<path style="fill:none;stroke-width:1.2;stroke-linecap:butt;stroke-linejoin:miter;stroke:rgb(0%,0%,100%);stroke-opacity:1;stroke-miterlimit:10;" d="M 200.59375 136.921875 L 201.648438 128.449219 "/>
<path style="fill:none;stroke-width:1.2;stroke-linecap:butt;stroke-linejoin:miter;stroke:rgb(0%,0%,0%);stroke-opacity:1;stroke-miterlimit:10;" d="M 204.257812 148.128906 L 221.28125 161 "/>
<path style="fill:none;stroke-width:1.2;stroke-linecap:butt;stroke-linejoin:miter;stroke:rgb(0%,0%,100%);stroke-opacity:1;stroke-miterlimit:10;" d="M 206.894531 126.953125 L 198.382812 120.515625 "/>
<path style="fill:none;stroke-width:1.2;stroke-linecap:butt;stroke-linejoin:miter;stroke:rgb(0%,0%,0%);stroke-opacity:1;stroke-miterlimit:10;" d="M 198.382812 120.515625 L 189.871094 114.082031 "/>
<path style=" stroke:none;fill-rule:nonzero;fill:rgb(100%,100%,100%);fill-opacity:1;" d="M 203.894531 121.453125 L 210.894531 121.453125 L 210.894531 132.453125 L 203.894531 132.453125 Z M 203.894531 121.453125 "/>
<g style="fill:rgb(0%,0%,100%);fill-opacity:1;">
  <use xlink:href="#glyph0-2" x="203.894531" y="130.116211"/>
</g>
<path style="fill:none;stroke-width:1.2;stroke-linecap:butt;stroke-linejoin:miter;stroke:rgb(0%,0%,0%);stroke-opacity:1;stroke-miterlimit:10;" d="M 189.871094 114.082031 L 170.214844 122.386719 "/>
<path style="fill:none;stroke-width:1.2;stroke-linecap:butt;stroke-linejoin:miter;stroke:rgb(0%,0%,0%);stroke-opacity:1;stroke-miterlimit:10;" d="M 189.859375 119.539062 L 174.136719 126.183594 "/>
<path style="fill:none;stroke-width:1.2;stroke-linecap:butt;stroke-linejoin:miter;stroke:rgb(0%,0%,0%);stroke-opacity:1;stroke-miterlimit:10;" d="M 221.28125 161 L 218.644531 182.175781 "/>
<path style="fill:none;stroke-width:1.2;stroke-linecap:butt;stroke-linejoin:miter;stroke:rgb(0%,0%,0%);stroke-opacity:1;stroke-miterlimit:10;" d="M 226 163.738281 L 223.890625 180.679688 "/>
<path style="fill:none;stroke-width:1.2;stroke-linecap:butt;stroke-linejoin:miter;stroke:rgb(0%,0%,0%);stroke-opacity:1;stroke-miterlimit:10;" d="M 240.9375 152.695312 L 221.28125 161 "/>
<path style="fill:none;stroke-width:1.2;stroke-linecap:butt;stroke-linejoin:miter;stroke:rgb(0%,0%,0%);stroke-opacity:1;stroke-miterlimit:10;" d="M 218.644531 182.175781 L 235.667969 195.046875 "/>
<path style="fill:none;stroke-width:1.2;stroke-linecap:butt;stroke-linejoin:miter;stroke:rgb(0%,0%,0%);stroke-opacity:1;stroke-miterlimit:10;" d="M 235.667969 195.046875 L 255.324219 186.742188 "/>
<path style="fill:none;stroke-width:1.2;stroke-linecap:butt;stroke-linejoin:miter;stroke:rgb(0%,0%,0%);stroke-opacity:1;stroke-miterlimit:10;" d="M 235.679688 189.59375 L 251.402344 182.949219 "/>
<path style="fill:none;stroke-width:1.2;stroke-linecap:butt;stroke-linejoin:miter;stroke:rgb(0%,0%,0%);stroke-opacity:1;stroke-miterlimit:10;" d="M 255.324219 186.742188 L 257.960938 165.566406 "/>
<path style="fill:none;stroke-width:1.2;stroke-linecap:butt;stroke-linejoin:miter;stroke:rgb(0%,0%,0%);stroke-opacity:1;stroke-miterlimit:10;" d="M 257.960938 165.566406 L 240.9375 152.695312 "/>
<path style="fill:none;stroke-width:1.2;stroke-linecap:butt;stroke-linejoin:miter;stroke:rgb(0%,0%,0%);stroke-opacity:1;stroke-miterlimit:10;" d="M 253.230469 168.285156 L 239.613281 157.988281 "/>
<path style="fill:none;stroke-width:1.2;stroke-linecap:butt;stroke-linejoin:miter;stroke:rgb(0%,0%,0%);stroke-opacity:1;stroke-miterlimit:10;" d="M 240.9375 152.695312 L 243.574219 131.519531 "/>
<path style="fill:none;stroke-width:1.2;stroke-linecap:butt;stroke-linejoin:miter;stroke:rgb(0%,0%,0%);stroke-opacity:1;stroke-miterlimit:10;" d="M 243.574219 131.519531 L 244.890625 120.929688 "/>
<path style="fill:none;stroke-width:1.2;stroke-linecap:butt;stroke-linejoin:miter;stroke:rgb(20%,80%,80%);stroke-opacity:1;stroke-miterlimit:10;" d="M 244.890625 120.929688 L 246.207031 110.339844 "/>
<path style="fill:none;stroke-width:1.2;stroke-linecap:butt;stroke-linejoin:miter;stroke:rgb(0%,0%,0%);stroke-opacity:1;stroke-miterlimit:10;" d="M 243.574219 131.519531 L 254.160156 132.835938 "/>
<path style="fill:none;stroke-width:1.2;stroke-linecap:butt;stroke-linejoin:miter;stroke:rgb(20%,80%,80%);stroke-opacity:1;stroke-miterlimit:10;" d="M 254.160156 132.835938 L 264.75 134.152344 "/>
<path style="fill:none;stroke-width:1.2;stroke-linecap:butt;stroke-linejoin:miter;stroke:rgb(0%,0%,0%);stroke-opacity:1;stroke-miterlimit:10;" d="M 243.574219 131.519531 L 232.984375 130.199219 "/>
<path style="fill:none;stroke-width:1.2;stroke-linecap:butt;stroke-linejoin:miter;stroke:rgb(20%,80%,80%);stroke-opacity:1;stroke-miterlimit:10;" d="M 232.984375 130.199219 L 222.398438 128.882812 "/>
<path style=" stroke:none;fill-rule:nonzero;fill:rgb(100%,100%,100%);fill-opacity:1;" d="M 243.207031 104.839844 L 249.207031 104.839844 L 249.207031 115.839844 L 243.207031 115.839844 Z M 243.207031 104.839844 "/>
<g style="fill:rgb(20%,80%,80%);fill-opacity:1;">
  <use xlink:href="#glyph0-4" x="243.207031" y="113.50293"/>
</g>
<path style=" stroke:none;fill-rule:nonzero;fill:rgb(100%,100%,100%);fill-opacity:1;" d="M 261.75 128.652344 L 267.75 128.652344 L 267.75 139.652344 L 261.75 139.652344 Z M 261.75 128.652344 "/>
<g style="fill:rgb(20%,80%,80%);fill-opacity:1;">
  <use xlink:href="#glyph0-4" x="261.75" y="137.31543"/>
</g>
<path style=" stroke:none;fill-rule:nonzero;fill:rgb(100%,100%,100%);fill-opacity:1;" d="M 216.398438 123.382812 L 222.398438 123.382812 L 222.398438 134.382812 L 216.398438 134.382812 Z M 216.398438 123.382812 "/>
<g style="fill:rgb(20%,80%,80%);fill-opacity:1;">
  <use xlink:href="#glyph0-4" x="216.398438" y="132.045898"/>
</g>
<path style="fill:none;stroke-width:1.2;stroke-linecap:butt;stroke-linejoin:miter;stroke:rgb(100%,0%,0%);stroke-opacity:1;stroke-miterlimit:10;" d="M 96.859375 113.257812 L 106.6875 109.105469 "/>
<path style="fill:none;stroke-width:1.2;stroke-linecap:butt;stroke-linejoin:miter;stroke:rgb(0%,0%,0%);stroke-opacity:1;stroke-miterlimit:10;" d="M 106.6875 109.105469 L 116.515625 104.953125 "/>
<path style=" stroke:none;fill-rule:nonzero;fill:rgb(100%,100%,100%);fill-opacity:1;" d="M 92.859375 107.757812 L 100.859375 107.757812 L 100.859375 118.757812 L 92.859375 118.757812 Z M 92.859375 107.757812 "/>
<g style="fill:rgb(100%,0%,0%);fill-opacity:1;">
  <use xlink:href="#glyph0-1" x="92.859375" y="116.420898"/>
</g>
</g>
</svg>

<svg xmlns="http://www.w3.org/2000/svg" xmlns:xlink="http://www.w3.org/1999/xlink" width="300pt" height="300pt" viewBox="0 0 300 300"><defs><symbol overflow="visible"><path d="M.453 1.594v-7.938h4.5v7.938zm.5-.5h3.5v-6.938h-3.5zm0 0"/></symbol><symbol overflow="visible" id="a"><path d="M3.547-5.953c-.65 0-1.164.242-1.547.72-.375.48-.563 1.13-.563 1.952 0 .835.188 1.49.563 1.967.383.48.898.72 1.547.72.644 0 1.156-.24 1.53-.72.376-.476.564-1.132.564-1.968 0-.822-.187-1.474-.562-1.954-.375-.477-.887-.72-1.53-.72zm0-.734c.914 0 1.648.312 2.203.937.55.617.828 1.438.828 2.47 0 1.042-.277 1.87-.828 2.483-.555.617-1.29.922-2.203.922-.93 0-1.668-.305-2.22-.922C.774-1.41.5-2.237.5-3.28c0-1.033.273-1.853.828-2.47.55-.625 1.29-.938 2.22-.938zm0 0"/></symbol><symbol overflow="visible" id="b"><path d="M.89-6.563H2.08l2.906 5.485v-5.484h.86V0H4.656L1.75-5.484V0H.89zm0 0"/></symbol><symbol overflow="visible" id="c"><path d="M.89-6.563h.876v2.688H5v-2.688h.89V0H5v-3.125H1.766V0H.89zm0 0"/></symbol><symbol overflow="visible" id="d"><path d="M.89-6.563h3.766v.75h-2.89v1.938h2.61v.734h-2.61V0H.89zm0 0"/></symbol></defs><g><path fill="#fff" d="M0 0h300v300H0z"/><path d="M35.25 159.352l8.512 6.437" stroke-width="1.2" stroke="#000" stroke-miterlimit="10" fill="none"/><path d="M43.762 165.79l8.51 6.433M52.273 172.223l9.83-4.153" stroke-width="1.2" stroke="#f00" stroke-miterlimit="10" fill="none"/><path d="M62.102 168.07l9.828-4.152" stroke-width="1.2" stroke="#000" stroke-miterlimit="10" fill="none"/><path d="M48.273 166.723h8v11h-8zm0 0" fill="#fff"/><use xlink:href="#a" x="48.273" y="175.386" fill="#f00"/><path d="M71.93 163.918l2.636-21.176M77.176 162.418l2.11-16.94M88.95 176.79l-17.02-12.872M74.566 142.742l19.657-8.308M94.223 134.434l17.02 12.87M92.895 139.727l13.617 10.296M94.223 134.434l1.316-10.586" stroke-width="1.2" stroke="#000" stroke-miterlimit="10" fill="none"/><path d="M95.54 123.848l1.32-10.59" stroke-width="1.2" stroke="#f00" stroke-miterlimit="10" fill="none"/><path d="M111.242 147.305l-2.633 21.175M111.242 147.305l19.66-8.305M108.61 168.48l-19.66 8.31M104.688 164.688L88.96 171.33M130.902 139l8.508 6.434" stroke-width="1.2" stroke="#000" stroke-miterlimit="10" fill="none"/><path d="M139.41 145.434l8.512 6.437M147.922 151.87l9.828-4.15" stroke-width="1.2" stroke="#00f" stroke-miterlimit="10" fill="none"/><path d="M157.75 147.72l9.828-4.154" stroke-width="1.2" stroke="#000" stroke-miterlimit="10" fill="none"/><path d="M140.922 146.37h14v11h-14zm0 0" fill="#fff"/><g fill="#00f"><use xlink:href="#b" x="140.922" y="155.034"/><use xlink:href="#c" x="147.899" y="155.034"/></g><path d="M167.578 143.566L176.09 150" stroke-width="1.2" stroke="#000" stroke-miterlimit="10" fill="none"/><path d="M176.09 150l8.512 6.434" stroke-width="1.2" stroke="#00f" stroke-miterlimit="10" fill="none"/><path d="M172.31 140.848l6.807 5.148" stroke-width="1.2" stroke="#000" stroke-miterlimit="10" fill="none"/><path d="M179.117 145.996l6.813 5.15" stroke-width="1.2" stroke="#00f" stroke-miterlimit="10" fill="none"/><path d="M170.215 122.387l-2.637 21.18" stroke-width="1.2" stroke="#000" stroke-miterlimit="10" fill="none"/><path d="M184.602 156.434l9.828-4.153" stroke-width="1.2" stroke="#00f" stroke-miterlimit="10" fill="none"/><path d="M194.43 152.28l9.828-4.15" stroke-width="1.2" stroke="#000" stroke-miterlimit="10" fill="none"/><path d="M181.602 150.934h7v11h-7zm0 0" fill="#fff"/><use xlink:href="#b" x="181.602" y="159.597" fill="#00f"/><path d="M204.258 148.13l1.32-10.587" stroke-width="1.2" stroke="#000" stroke-miterlimit="10" fill="none"/><path d="M205.578 137.543l1.317-10.59" stroke-width="1.2" stroke="#00f" stroke-miterlimit="10" fill="none"/><path d="M199.54 145.39l1.054-8.468" stroke-width="1.2" stroke="#000" stroke-miterlimit="10" fill="none"/><path d="M200.594 136.922l1.054-8.473" stroke-width="1.2" stroke="#00f" stroke-miterlimit="10" fill="none"/><path d="M204.258 148.13L221.28 161" stroke-width="1.2" stroke="#000" stroke-miterlimit="10" fill="none"/><path d="M206.895 126.953l-8.512-6.437" stroke-width="1.2" stroke="#00f" stroke-miterlimit="10" fill="none"/><path d="M198.383 120.516l-8.512-6.434" stroke-width="1.2" stroke="#000" stroke-miterlimit="10" fill="none"/><path d="M203.895 121.453h7v11h-7zm0 0" fill="#fff"/><use xlink:href="#b" x="203.895" y="130.116" fill="#00f"/><path d="M189.87 114.082l-19.655 8.305M189.86 119.54l-15.723 6.644M221.28 161l-2.635 21.176M226 163.738l-2.11 16.942M240.938 152.695L221.28 161M218.645 182.176l17.023 12.87M235.668 195.047l19.656-8.305M235.68 189.594l15.722-6.645M255.324 186.742l2.637-21.176M257.96 165.566l-17.022-12.87M253.23 168.285l-13.617-10.297M240.938 152.695l2.636-21.175M243.574 131.52l1.317-10.59" stroke-width="1.2" stroke="#000" stroke-miterlimit="10" fill="none"/><path d="M244.89 120.93l1.317-10.59" stroke-width="1.2" stroke="#3cc" stroke-miterlimit="10" fill="none"/><path d="M243.574 131.52l10.586 1.316" stroke-width="1.2" stroke="#000" stroke-miterlimit="10" fill="none"/><path d="M254.16 132.836l10.59 1.316" stroke-width="1.2" stroke="#3cc" stroke-miterlimit="10" fill="none"/><path d="M243.574 131.52l-10.59-1.32" stroke-width="1.2" stroke="#000" stroke-miterlimit="10" fill="none"/><path d="M232.984 130.2l-10.586-1.317" stroke-width="1.2" stroke="#3cc" stroke-miterlimit="10" fill="none"/><path d="M243.207 104.84h6v11h-6zm0 0" fill="#fff"/><use xlink:href="#d" x="243.207" y="113.503" fill="#3cc"/><path d="M261.75 128.652h6v11h-6zm0 0" fill="#fff"/><use xlink:href="#d" x="261.75" y="137.315" fill="#3cc"/><path d="M216.398 123.383h6v11h-6zm0 0" fill="#fff"/><use xlink:href="#d" x="216.398" y="132.046" fill="#3cc"/><path d="M96.86 113.258l9.828-4.153" stroke-width="1.2" stroke="#f00" stroke-miterlimit="10" fill="none"/><path d="M106.688 109.105l9.828-4.152" stroke-width="1.2" stroke="#000" stroke-miterlimit="10" fill="none"/><path d="M92.86 107.758h8v11h-8zm0 0" fill="#fff"/><use xlink:href="#a" x="92.859" y="116.421" fill="#f00"/></g></svg>
